!!! OTL: Berkowitz506
!!! Chapter: 1
!!! Section: IV
!!! Page: 127
!!! Mode: 
!!! Encoder: DJB
**kern
*staff1
*I"Piano
=1-
*clefG2
*k[]
*a:
*M4/4
12g/
12r
12e/
12r
12c/
12r
12A/
12r
12B/
12r
12c/
12r
=2
4G/
8c/
8r
4A/
8d/
8r
=3
4G/
8c/
8r
4A/
8f/
8r
=4
12a/
12r
12f/
12r
12d/
12r
12c#/
12r
12d/
12r
12e/
12r
=5
!!linebreak:original
4A/
8d/
8r
4c#/
8e/
8r
=6
8A/L
8G#/
8A/
8d/J
8c#/L
8B/
8c#/
8e/J
=7
12f/
12r
12g/
12r
12a/
12r
12g/
12r
12d/
12r
12f/
12r
=8
12c/
12r
12d/
12r
12e/
12r
12f/
12r
12d/
12r
12B/
12r
=9
!!linebreak:original
8c/L
8d/
8e/
8d#/J
8e/L
8A/
8B/
8c/J
=10
4A/
4r
2r
==
*-
